icons/linear-ele-symbol-close-circle.svg

<svg xmlns="http://www.w3.org/2000/svg" width="32px" height="32px" viewBox="0 0 32 32" version="1.1">
    <title>linear-ele-symbol-close-circle</title>
    <g id="linear-ele-symbol-close-circle" stroke-width="1" fill-rule="evenodd">
        <path d="M16,2 C23.7319865,2 30,8.2680135 30,16 C30,23.7319865 23.7319865,30 16,30 C8.2680135,30 2,23.7319865 2,16 C2,8.2680135 8.2680135,2 16,2 Z M16,4 C9.372583,4 4,9.372583 4,16 C4,22.627417 9.372583,28 16,28 C22.627417,28 28,22.627417 28,16 C28,9.372583 22.627417,4 16,4 Z M13.2071068,11.7928932 L16,14.585 L18.7928932,11.7928932 C19.1834175,11.4023689 19.8165825,11.4023689 20.2071068,11.7928932 C20.5976311,12.1834175 20.5976311,12.8165825 20.2071068,13.2071068 L17.415,16 L20.2071068,18.7928932 C20.5976311,19.1834175 20.5976311,19.8165825 20.2071068,20.2071068 C19.8165825,20.5976311 19.1834175,20.5976311 18.7928932,20.2071068 L16,17.415 L13.2071068,20.2071068 C12.8165825,20.5976311 12.1834175,20.5976311 11.7928932,20.2071068 C11.4023689,19.8165825 11.4023689,19.1834175 11.7928932,18.7928932 L14.585,16 L11.7928932,13.2071068 C11.4023689,12.8165825 11.4023689,12.1834175 11.7928932,11.7928932 C12.1834175,11.4023689 12.8165825,11.4023689 13.2071068,11.7928932 Z" id="&#24418;&#29366;&#32467;&#21512;" fill-rule="nonzero" />
    </g>
</svg>

<svg xmlns="http://www.w3.org/2000/svg" viewBox="0 0 32 32"><path fill="currentColor" d="M16 2c7.732 0 14 6.268 14 14s-6.268 14-14 14S2 23.732 2 16 8.268 2 16 2m0 2C9.373 4 4 9.373 4 16s5.373 12 12 12 12-5.373 12-12S22.627 4 16 4m-2.793 7.793L16 14.585l2.793-2.792a1 1 0 0 1 1.414 1.414L17.415 16l2.792 2.793a1 1 0 0 1-1.414 1.414L16 17.415l-2.793 2.792a1 1 0 0 1-1.414-1.414L14.585 16l-2.792-2.793a1 1 0 0 1 1.414-1.414"/></svg>
